src/img/icons/share.svg

<svg fill="none" height="19" viewBox="0 0 21 19" width="21" xmlns="http://www.w3.org/2000/svg"><path d="m19.6484 8.36719-6.875 5.89841c-.5859.5078-1.5234.0782-1.5234-.7031v-3.3984c-6.09375.0781-8.67188 1.5625-6.91406 7.2265.19531.625-.58594 1.1328-1.09375.7422-1.71875-1.25-3.24219-3.6328-3.24219-6.0156 0-5.93751 4.96094-7.22658 11.25-7.3047v-3.08594c0-.82031.9375-1.249998 1.5234-.742185l6.875 5.898435c.4297.42969.4297 1.09375 0 1.48438z" fill="#fff"/></svg>

<svg width="21" height="19" viewBox="0 0 21 19" fill="none" xmlns="http://www.w3.org/2000/svg">
<path d="M19.6484 8.36719L12.7734 14.2656C12.1875 14.7734 11.25 14.3438 11.25 13.5625V10.1641C5.15625 10.2422 2.57812 11.7266 4.33594 17.3906C4.53125 18.0156 3.75 18.5234 3.24219 18.1328C1.52344 16.8828 0 14.5 0 12.1172C0 6.17969 4.96094 4.89062 11.25 4.8125V1.72656C11.25 0.90625 12.1875 0.476562 12.7734 0.984375L19.6484 6.88281C20.0781 7.3125 20.0781 7.97656 19.6484 8.36719Z" fill="white"/>
</svg>
